X:38
T:Scottishe de la colle  chaux
R:Scottish
N:parties CDE peut-tre pas de Sude
N:tagafolk.abc
O:Sverige
Z:<anamnese@laposte.net>
P:ABABABCDEE
M:C|
L:1/8
Q:1/2=76
K:C
P:A
ABcde2 ec | defga4 | a2 gf e3d |1c2B2c2A2 :|2 c2B2A4 |
P:B
|: ABcA B2B2 | B2 cd e2c2 | ABcA B2 Bd |1 c2B2c4 :|2 c2B2A4 |
P:C
|: AGAB c3B | A2A2A4 | G2G2A2G2 | E2E2D2E2 |
   AGAB c3B | A2A2A4 |1 c2c2B2G2 | A2A2A4 :|2 cedc BEcB | A4A4 ||
P:D
   AGcd e3g | fedf edcB | AGcd e3g | fedc B4 ||
P:E
   AGAB A3A | Bcdc B2G2 | AGAB A3A | (3Bcd edcB A2 ||
%%vskip 0.5cm
%%sep
%%text Danmark :
